assets/earthly.svg

<?xml version="1.0" encoding="UTF-8" standalone="no"?>
<svg
   width="109"
   height="85.5"
   viewBox="0 0 109 85.5"
   fill="none"
   version="1.1"
   id="svg20"
   sodipodi:docname="earthly.svg"
   inkscape:version="1.1.2 (b8e25be833, 2022-02-05)"
   xmlns:inkscape="http://www.inkscape.org/namespaces/inkscape"
   xmlns:sodipodi="http://sodipodi.sourceforge.net/DTD/sodipodi-0.dtd"
   xmlns="http://www.w3.org/2000/svg"
   xmlns:svg="http://www.w3.org/2000/svg">
  <defs
     id="defs24" />
  <sodipodi:namedview
     id="namedview22"
     pagecolor="#ffffff"
     bordercolor="#666666"
     borderopacity="1.0"
     inkscape:pageshadow="2"
     inkscape:pageopacity="0.0"
     inkscape:pagecheckerboard="0"
     showgrid="false"
     inkscape:zoom="6.2357143"
     inkscape:cx="54.444444"
     inkscape:cy="44.421535"
     inkscape:window-width="1920"
     inkscape:window-height="1017"
     inkscape:window-x="-1928"
     inkscape:window-y="-240"
     inkscape:window-maximized="1"
     inkscape:current-layer="svg20" />
  <path
     fill-rule="evenodd"
     clip-rule="evenodd"
     d="M 36.1572,4.04773 C 36.1384,3.99539 36.1104,3.94537 36.0731,3.90004 35.898,3.68763 35.583,3.65845 35.3694,3.83486 L 35.3375,3.86115 C 32.2355,1.44801 29.6516,0.13825197 26.9978,0.01036567 24.1383,-0.12743903 21.3121,1.11214 17.7995,3.52781 17.7824,3.53954 17.7663,3.55213 17.7512,3.56548 17.5539,3.45205 17.2966,3.48604 17.1344,3.66104 16.946,3.8642 16.957,4.18048 17.159,4.36746 c 3.4011,3.14892 6.2076,4.85382 9.1749,4.89543 2.6912,0.03773 5.3934,-1.29498 8.663,-3.84949 0.087,0.20255 0.2411,0.37782 0.4511,0.48891 5.808,3.07219 9.4732,6.12909 11.9295,10.28159 0.9762,1.6503 1.7715,3.4901 2.4305,5.5981 -1.6251,-1.724 -3.2288,-2.8614 -5.0159,-3.4398 -2.7423,-0.8875 -5.8071,-0.4235 -9.8425,1.0067 -0.1054,0.0374 -0.1905,0.1065 -0.2483,0.1929 -0.1512,-0.0663 -0.332,-0.0563 -0.4794,0.0423 -0.2294,0.1536 -0.291,0.4641 -0.1374,0.6936 2.5388,3.7931 4.8452,6.0932 7.7013,6.9105 2.541,0.7271 5.4147,0.2508 9.0989,-1.1701 0.4646,2.261 0.8381,4.7875 1.1547,7.64 0.0609,0.5489 0.5553,0.9445 1.1042,0.8836 0.5489,-0.061 0.9445,-0.5553 0.8836,-1.1042 -0.8843,-7.9676 -2.2323,-13.7141 -4.9283,-18.2718 -0.0153,-0.0259 -0.0306,-0.0517 -0.046,-0.0775 3.926,-1.04 6.6052,-2.3465 8.3308,-4.5352 1.7819,-2.26017 2.4756,-5.37128 2.6384,-9.82528603 0.0054,-0.146278 -0.0527,-0.280173 -0.1495,-0.375215 -0.0918,-0.22526 -0.337,-0.35563142 -0.5806,-0.2966298 C 54.9603,1.10507 52.0504,2.40618 50.1918,4.60358 48.5281,6.57042 47.7656,9.18503 47.4742,12.7713 44.8504,9.38319 41.2761,6.72258 36.3832,4.1344 36.31,4.09566 36.2341,4.06694 36.1572,4.04773 Z M 48.4959,14.2001 c -0.0341,-0.0517 -0.0684,-0.1032 -0.1028,-0.1546 0.2108,-4.16325 0.9322,-6.86913 2.5621,-8.79611 1.577,-1.86431 4.0722,-3.0804 8.0483,-4.0916 -0.192,4.13889 -0.8844,6.84719 -2.4051,8.77606 -1.562,1.98125 -4.068,3.22845 -8.1025,4.26625 z m 1.9411,9.8372 c 0.0805,0.3244 0.1586,0.6545 0.2345,0.9908 -3.6861,1.438 -6.349,1.8458 -8.6106,1.1986 -2.3692,-0.6779 -4.4138,-2.5475 -6.7614,-5.9408 3.9713,-1.4059 6.7684,-1.7743 9.1847,-0.9923 2.0374,0.6594 3.8815,2.1614 5.9528,4.7437 z M 26.943,1.00885 c 2.3005,0.11086 4.6342,1.2271 7.592,3.49989 C 31.2479,7.10056 28.7362,8.29648 26.3545,8.26309 23.9551,8.22944 21.5601,6.94558 18.5168,4.24466 21.9038,1.93619 24.4595,0.88916597 26.943,1.00885 Z"
     fill="#003f3f"
     id="path2" />
  <path
     d="M 109,85.5 C 109,71.0457 103.258,57.1834 93.0373,46.9627 82.8166,36.7419 68.9543,31 54.5,31 40.0457,31 26.1834,36.7419 15.9627,46.9627 5.74195,57.1834 2.18254e-6,71.0457 0,85.5 h 54.5 z"
     fill="#7ad6c7"
     id="path4" />
  <path
     d="m 93,59 c 0,13.2548 -18.1361,6.9231 -21.7633,24 -12.0196,0 0,-24 -21.7633,-24 C 27.7101,59 59.2171,35 71.2367,35 83.2562,35 93,45.7452 93,59 Z"
     fill="#0d986e"
     id="path6" />
  <path
     d="M 16.8441,63.4372 C 9.86008,64.7501 7.49279,75.4212 4.82694,73.9652 2.1611,72.5091 3.21916,65.4349 7.1902,58.1644 c 3.971,-7.2705 9.3513,-11.984 12.0171,-10.528 2.6659,1.4561 4.6208,14.4879 -2.3632,15.8008 z"
     fill="#0d986e"
     id="path8" />
  <path
     d="m 36,71 c 7.363,5.4442 13.3333,5.2213 20,0"
     stroke="#000000"
     stroke-width="2"
     stroke-linecap="round"
     id="path10" />
  <path
     d="m 60,64 c 2.5771,4.0832 4.6667,3.916 7,0"
     stroke="#000000"
     stroke-width="2"
     stroke-linecap="round"
     id="path12" />
  <path
     d="m 25,65 c 2.5771,4.0832 4.6667,3.916 7,0"
     stroke="#000000"
     stroke-width="2"
     stroke-linecap="round"
     id="path14" />
  <ellipse
     cx="22.5"
     cy="74.5"
     rx="5.5"
     ry="3.5"
     fill="#fd8798"
     id="ellipse16" />
  <ellipse
     cx="69.5"
     cy="73.5"
     rx="5.5"
     ry="3.5"
     fill="#fd8798"
     id="ellipse18" />
</svg>

<svg width="109" height="140" viewBox="0 0 109 140" fill="none" xmlns="http://www.w3.org/2000/svg">
<path fill-rule="evenodd" clip-rule="evenodd" d="M36.1572 4.04773C36.1384 3.99539 36.1104 3.94537 36.0731 3.90004C35.898 3.68763 35.583 3.65845 35.3694 3.83486L35.3375 3.86115C32.2355 1.44801 29.6516 0.138252 26.9978 0.0103657C24.1383 -0.127439 21.3121 1.11214 17.7995 3.52781C17.7824 3.53954 17.7663 3.55213 17.7512 3.56548C17.5539 3.45205 17.2966 3.48604 17.1344 3.66104C16.946 3.8642 16.957 4.18048 17.159 4.36746C20.5601 7.51638 23.3666 9.22128 26.3339 9.26289C29.0251 9.30062 31.7273 7.96791 34.9969 5.4134C35.0839 5.61595 35.238 5.79122 35.448 5.90231C41.256 8.9745 44.9212 12.0314 47.3775 16.1839C48.3537 17.8342 49.149 19.674 49.808 21.782C48.1829 20.058 46.5792 18.9206 44.7921 18.3422C42.0498 17.4547 38.985 17.9187 34.9496 19.3489C34.8442 19.3863 34.7591 19.4554 34.7013 19.5418C34.5501 19.4755 34.3693 19.4855 34.2219 19.5841C33.9925 19.7377 33.9309 20.0482 34.0845 20.2777C36.6233 24.0708 38.9297 26.3709 41.7858 27.1882C44.3268 27.9153 47.2005 27.439 50.8847 26.0181C51.3493 28.2791 51.7228 30.8056 52.0394 33.6581C52.1003 34.207 52.5947 34.6026 53.1436 34.5417C53.6925 34.4807 54.0881 33.9864 54.0272 33.4375C53.1429 25.4699 51.7949 19.7234 49.0989 15.1657C49.0836 15.1398 49.0683 15.114 49.0529 15.0882C52.9789 14.0482 55.6581 12.7417 57.3837 10.553C59.1656 8.29283 59.8593 5.18172 60.0221 0.727714C60.0275 0.581436 59.9694 0.447541 59.8726 0.352499C59.7808 0.127239 59.5356 -0.00313242 59.292 0.0558692C54.9603 1.10507 52.0504 2.40618 50.1918 4.60358C48.5281 6.57042 47.7656 9.18503 47.4742 12.7713C44.8504 9.38319 41.2761 6.72258 36.3832 4.1344C36.31 4.09566 36.2341 4.06694 36.1572 4.04773ZM48.4959 14.2001C48.4618 14.1484 48.4275 14.0969 48.3931 14.0455C48.6039 9.88225 49.3253 7.17637 50.9552 5.24939C52.5322 3.38508 55.0274 2.16899 59.0035 1.15779C58.8115 5.29668 58.1191 8.00498 56.5984 9.93385C55.0364 11.9151 52.5304 13.1623 48.4959 14.2001ZM50.437 24.0373C50.5175 24.3617 50.5956 24.6918 50.6715 25.0281C46.9854 26.4661 44.3225 26.8739 42.0609 26.2267C39.6917 25.5488 37.6471 23.6792 35.2995 20.2859C39.2708 18.88 42.0679 18.5116 44.4842 19.2936C46.5216 19.953 48.3657 21.455 50.437 24.0373ZM26.943 1.00885C29.2435 1.11971 31.5772 2.23595 34.535 4.50874C31.2479 7.10056 28.7362 8.29648 26.3545 8.26309C23.9551 8.22944 21.5601 6.94558 18.5168 4.24466C21.9038 1.93619 24.4595 0.889166 26.943 1.00885Z" fill="#003F3F"/>
<path d="M109 85.5C109 71.0457 103.258 57.1834 93.0373 46.9627C82.8166 36.7419 68.9543 31 54.5 31C40.0457 31 26.1834 36.7419 15.9627 46.9627C5.74195 57.1834 2.18254e-06 71.0457 0 85.5L54.5 85.5H109Z" fill="#7AD6C7"/>
<path d="M93 59C93 72.2548 74.8639 65.9231 71.2367 83C59.2171 83 71.2367 59 49.4734 59C27.7101 59 59.2171 35 71.2367 35C83.2562 35 93 45.7452 93 59Z" fill="#0D986E"/>
<path d="M16.8441 63.4372C9.86008 64.7501 7.49279 75.4212 4.82694 73.9652C2.1611 72.5091 3.21916 65.4349 7.1902 58.1644C11.1612 50.8939 16.5415 46.1804 19.2073 47.6364C21.8732 49.0925 23.8281 62.1243 16.8441 63.4372Z" fill="#0D986E"/>
<path d="M36 71C43.363 76.4442 49.3333 76.2213 56 71" stroke="black" stroke-width="2" stroke-linecap="round"/>
<path d="M60 64C62.5771 68.0832 64.6667 67.916 67 64" stroke="black" stroke-width="2" stroke-linecap="round"/>
<path d="M25 65C27.5771 69.0832 29.6667 68.916 32 65" stroke="black" stroke-width="2" stroke-linecap="round"/>
<ellipse cx="22.5" cy="74.5" rx="5.5" ry="3.5" fill="#FD8798"/>
<ellipse cx="69.5" cy="73.5" rx="5.5" ry="3.5" fill="#FD8798"/>
</svg>
